X: 13912
T: Foxhunter, The
R: slip jig
M: 9/8
K: Dmajor
BcB BGB ~c2A|BcB BGB A2G|BcB BGB cde|dBG GAB ~A2G:|
|:efe edc Bcd|~e2A A2B cBA|def gfe def|~g2G GAB ~A2G:|

